X: 1
T:My Darling Asleep
M:6/8
L:1/8
R:Jig
K:D
fdd cAA|BGB A2G|FAA def|gfg e2g|fdd cAA|BGB A2G|FAA def|gec d3:||
FAA BAA|FAA BAA|FAA def|gfg e2g|fdd cAA|BGB A2G|FAA def|gec d3:||
